outputs/icons/social/twitter_sharp.svg

<svg xmlns="http://www.w3.org/2000/svg" width="1200" height="1200" fill="none"><g clip-path="url(#a)"><path fill="#000" d="M1100 296.046a410.5 410.5 0 0 1-117.825 32.303 205.75 205.75 0 0 0 90.19-113.49A410.9 410.9 0 0 1 942.1 264.642a205.35 205.35 0 0 0-246.455-40.344 205.33 205.33 0 0 0-90.115 96.24 205.34 205.34 0 0 0-13.02 131.202 582.42 582.42 0 0 1-422.846-214.343 205.376 205.376 0 0 0 63.492 273.888 204.2 204.2 0 0 1-92.924-25.66v2.578a205.24 205.24 0 0 0 46.392 129.952 205.24 205.24 0 0 0 118.188 71.21 205.3 205.3 0 0 1-92.728 3.515 205.32 205.32 0 0 0 191.628 142.57 411.53 411.53 0 0 1-254.77 87.885 418 418 0 0 1-48.942-2.87 580.63 580.63 0 0 0 314.435 92.18c377.34 0 583.695-312.6 583.695-583.716q0-13.32-.585-26.522A417.1 417.1 0 0 0 1100 296.046"/></g><defs><clipPath id="a"><path fill="#fff" d="M0 0h1200v1200H0z"/></clipPath></defs></svg>

<svg width="1200" height="1200" viewBox="0 0 1200 1200" fill="none" xmlns="http://www.w3.org/2000/svg"><g clip-path="url(#clip0_788_2010)"><path d="M1100 296.046C1062.555 312.631 1022.84 323.519 982.175 328.349C1025.01 302.714 1057.065 262.379 1072.365 214.859C1032.095 238.755 988.04 255.592 942.1 264.642C911.165 231.761 870.26 209.99 825.71 202.698C781.16 195.405 735.45 202.996 695.645 224.298C655.845 245.6 624.17 279.424 605.53 320.538C586.885 361.652 582.31 407.764 592.51 451.74C510.94 447.657 431.14 426.464 358.293 389.537C285.445 352.611 221.177 300.775 169.664 237.397C143.436 282.565 135.403 336.029 147.197 386.91C158.993 437.791 189.731 482.266 233.156 511.285C200.577 510.27 168.715 501.475 140.232 485.625C140.232 486.484 140.232 487.343 140.232 488.203C140.235 535.575 156.625 581.49 186.624 618.155C216.621 654.82 258.379 679.98 304.812 689.365C274.577 697.6 242.856 698.8 212.084 692.88C225.165 733.66 250.672 769.33 285.034 794.895C319.395 820.46 360.892 834.64 403.712 835.45C331.061 892.51 241.323 923.465 148.942 923.335C132.586 923.335 116.244 922.38 100 920.465C193.787 980.74 302.947 1012.745 414.435 1012.645C791.775 1012.645 998.13 700.045 998.13 428.929C998.13 420.049 997.935 411.209 997.545 402.407C1037.75 373.331 1072.445 337.312 1100 296.046Z" fill="black"/></g><defs><clipPath id="clip0_788_2010"><path width="24" fill="white" d="M0 0H1200V1200H0V0z"/></clipPath></defs></svg>
